polaris-icons/icons/IndentMajor.svg

<svg viewBox="0 0 20 20" xmlns="http://www.w3.org/2000/svg">
<path fill-rule="evenodd" clip-rule="evenodd" d="M3 4.75C3 4.33579 3.33579 4 3.75 4H16.25C16.6642 4 17 4.33579 17 4.75C17 5.16421 16.6642 5.5 16.25 5.5H3.75C3.33579 5.5 3 5.16421 3 4.75ZM10 8.25C10 7.83579 10.3358 7.5 10.75 7.5H16.25C16.6642 7.5 17 7.83579 17 8.25C17 8.66421 16.6642 9 16.25 9H10.75C10.3358 9 10 8.66421 10 8.25ZM10 11.75C10 11.3358 10.3358 11 10.75 11H16.25C16.6642 11 17 11.3358 17 11.75C17 12.1642 16.6642 12.5 16.25 12.5H10.75C10.3358 12.5 10 12.1642 10 11.75ZM3 15.25C3 14.8358 3.33579 14.5 3.75 14.5H16.25C16.6642 14.5 17 14.8358 17 15.25C17 15.6642 16.6642 16 16.25 16H3.75C3.33579 16 3 15.6642 3 15.25ZM3.95972 12.8996C3.54949 13.1618 3 12.8798 3 12.4071V7.59292C3 7.12015 3.54949 6.83816 3.95973 7.10041L7.72511 9.5075C8.09163 9.7418 8.09163 10.2582 7.72511 10.4925L3.95972 12.8996Z" fill="#5C5F62"/>
</svg>

<svg xmlns="http://www.w3.org/2000/svg" viewBox="0 0 20 20"><path fill="#5C5F62" fill-rule="evenodd" d="M3 4.75A.75.75 0 0 1 3.75 4h12.5a.75.75 0 0 1 0 1.5H3.75A.75.75 0 0 1 3 4.75Zm7 3.5a.75.75 0 0 1 .75-.75h5.5a.75.75 0 0 1 0 1.5h-5.5a.75.75 0 0 1-.75-.75Zm0 3.5a.75.75 0 0 1 .75-.75h5.5a.75.75 0 0 1 0 1.5h-5.5a.75.75 0 0 1-.75-.75Zm-7 3.5a.75.75 0 0 1 .75-.75h12.5a.75.75 0 0 1 0 1.5H3.75a.75.75 0 0 1-.75-.75Zm.96-2.35c-.41.262-.96-.02-.96-.493V7.593c0-.473.55-.755.96-.493l3.765 2.408a.579.579 0 0 1 0 .985L3.96 12.9Z" clip-rule="evenodd"/></svg>
